!!!OTL: Glenlogie
!!!ARE: Scotland
!!!AGN: Aberdeenshire ballad
!!!AMD: Pentatonic
**kern
=1-
*clefG2
*k[]
*M6/8
*MM60
{8a/L
8a/
8g/J
8a/L
8a/
8g/J
=2
8a/L
8a/
8g/J
4e/}
{(16cc\LL
16dd\JJ)
=3
8ee\L
8ee\
(16dd\L
16cc\JJ)
8cc\L
8a\
(16cc\L
16a\JJ)
=4
8g/L
8e/
8g/J
4a/}
{(16cc\LL
16dd\JJ)
=5
8ee\L
8ee\
(16dd\L
16cc\JJ)
8dd\L
8dd\
(16ee\L
16dd\JJ)
=6
8cc/L
8a/
(16g/L
16e/JJ)
4d/}
{(16cc/LL
16a/JJ)
=7
8g/L
8e/
8c/J
8d/L
8c/
8d/J
=8
8e/L
8cc/
8g/J
4a/}
8r
==
*-
